src/img/vida.svg

<svg width="36" height="36" viewBox="0 0 36 36" fill="none" xmlns="http://www.w3.org/2000/svg">
<path d="M35.3906 9.51367C35.5273 10.416 35.5273 11.332 35.3906 12.2617C35.2812 13.1641 35.0215 14.1895 34.6113 15.3379C34.0371 16.9512 33.2988 18.5918 32.3965 20.2598C31.4941 21.9277 30.4277 23.5957 29.1973 25.2637C27.9668 26.9316 26.5723 28.5859 25.0137 30.2266C23.4551 31.8672 21.7461 33.4805 19.8867 35.0664C19.6133 35.2852 19.3125 35.4492 18.9844 35.5586C18.6562 35.6953 18.3281 35.7637 18 35.7637C17.6719 35.7637 17.3438 35.6953 17.0156 35.5586C16.6875 35.4492 16.3867 35.2852 16.1133 35.0664C14.2539 33.4805 12.5449 31.8672 10.9863 30.2266C9.45508 28.5859 8.07422 26.9316 6.84375 25.2637C5.61328 23.5957 4.54688 21.9277 3.64453 20.2598C2.71484 18.5918 1.96289 16.9512 1.38867 15.3379C1.00586 14.1895 0.746094 13.1641 0.609375 12.2617C0.472656 11.332 0.472656 10.416 0.609375 9.51367C0.800781 8.2832 1.19727 7.13477 1.79883 6.06836C2.40039 5.00195 3.15234 4.07227 4.05469 3.2793C4.95703 2.48633 5.96875 1.87109 7.08984 1.43359C8.23828 0.96875 9.44141 0.736328 10.6992 0.736328C10.7266 0.736328 10.7402 0.736328 10.7402 0.736328C10.7402 0.736328 10.7539 0.736328 10.7812 0.736328C12.2031 0.763672 13.5293 1.05078 14.7598 1.59766C16.0176 2.14453 17.0977 2.88281 18 3.8125C18.9297 2.88281 20.0098 2.14453 21.2402 1.59766C22.498 1.05078 23.8242 0.763672 25.2188 0.736328C25.2461 0.736328 25.2598 0.736328 25.2598 0.736328C25.2598 0.736328 25.2734 0.736328 25.3008 0.736328C26.5586 0.736328 27.7617 0.96875 28.9102 1.43359C30.0586 1.87109 31.0703 2.48633 31.9453 3.2793C32.8477 4.07227 33.5996 5.00195 34.2012 6.06836C34.8027 7.13477 35.1992 8.2832 35.3906 9.51367ZM32.9707 14.7637C33.3262 13.7246 33.5586 12.8223 33.668 12.0566C33.7773 11.291 33.7773 10.5254 33.668 9.75977C33.5039 8.77539 33.1758 7.8457 32.6836 6.9707C32.1914 6.06836 31.5625 5.27539 30.7969 4.5918C30.4414 4.26367 30.0449 3.97656 29.6074 3.73047C29.1973 3.45703 28.7598 3.23828 28.2949 3.07422C27.8027 2.88281 27.3105 2.74609 26.8184 2.66406C26.3262 2.55469 25.8203 2.5 25.3008 2.5C25.3008 2.5 25.2871 2.5 25.2598 2.5C24.6855 2.5 24.1113 2.56836 23.5371 2.70508C22.9902 2.81445 22.457 2.97852 21.9375 3.19727C21.4453 3.41602 20.9668 3.67578 20.502 3.97656C20.0645 4.27734 19.6543 4.63281 19.2715 5.04297L18 6.31445L16.7695 5.04297C16.3867 4.63281 15.9629 4.27734 15.498 3.97656C15.0605 3.67578 14.582 3.41602 14.0625 3.19727C13.543 2.97852 13.0098 2.81445 12.4629 2.70508C11.916 2.56836 11.3555 2.5 10.7812 2.5C10.7539 2.5 10.7402 2.5 10.7402 2.5C10.7402 2.5 10.7266 2.5 10.6992 2.5C10.207 2.5 9.70117 2.55469 9.18164 2.66406C8.68945 2.74609 8.21094 2.88281 7.74609 3.07422C7.28125 3.23828 6.83008 3.45703 6.39258 3.73047C5.98242 3.97656 5.58594 4.26367 5.20312 4.5918C4.4375 5.27539 3.80859 6.06836 3.31641 6.9707C2.82422 7.8457 2.50977 8.77539 2.37305 9.75977C2.23633 10.498 2.22266 11.2637 2.33203 12.0566C2.44141 12.8223 2.6875 13.7246 3.07031 14.7637C3.61719 16.3223 4.31445 17.8945 5.16211 19.4805C6.03711 21.0664 7.0625 22.6523 8.23828 24.2383C8.83984 25.0586 9.48242 25.8789 10.166 26.6992C10.8496 27.4922 11.5605 28.2852 12.2988 29.0781C13.0645 29.8711 13.8574 30.6641 14.6777 31.457C15.498 32.2227 16.3594 32.9746 17.2617 33.7129C17.3438 33.7949 17.4531 33.8633 17.5898 33.918C17.7266 33.9727 17.8633 34 18 34C18.1367 34 18.2734 33.9727 18.4102 33.918C18.5469 33.8633 18.6699 33.7949 18.7793 33.7129C19.6543 32.9746 20.502 32.2227 21.3223 31.457C22.1426 30.6641 22.9219 29.8711 23.6602 29.0781C24.4258 28.2852 25.1504 27.4922 25.834 26.6992C26.5176 25.8789 27.1602 25.0586 27.7617 24.2383C28.9375 22.6523 29.9492 21.0664 30.7969 19.4805C31.6719 17.8945 32.3965 16.3223 32.9707 14.7637ZM10.9863 5.98633C11.6973 5.98633 12.3672 6.12305 12.9961 6.39648C13.6523 6.66992 14.2266 7.05273 14.7188 7.54492C15.2109 8.03711 15.5801 8.61133 15.8262 9.26758C16.0996 9.89648 16.2363 10.5527 16.2363 11.2363C16.2363 11.9473 16.0996 12.6309 15.8262 13.2871C15.5801 13.916 15.2109 14.4766 14.7188 14.9688C14.2266 15.4609 13.6523 15.8438 12.9961 16.1172C12.3672 16.3633 11.6973 16.4863 10.9863 16.4863C10.3027 16.4863 9.63281 16.3633 8.97656 16.1172C8.34766 15.8438 7.78711 15.4609 7.29492 14.9688C6.80273 14.4766 6.41992 13.916 6.14648 13.2871C5.87305 12.6309 5.73633 11.9473 5.73633 11.2363C5.73633 10.5527 5.87305 9.89648 6.14648 9.26758C6.41992 8.61133 6.80273 8.03711 7.29492 7.54492C7.78711 7.05273 8.34766 6.66992 8.97656 6.39648C9.63281 6.12305 10.3027 5.98633 10.9863 5.98633ZM10.9863 14.7637C11.9707 14.7637 12.8047 14.4219 13.4883 13.7383C14.1719 13.0547 14.5137 12.2207 14.5137 11.2363C14.5137 10.2793 14.1719 9.45898 13.4883 8.77539C12.8047 8.0918 11.9707 7.75 10.9863 7.75C10.0293 7.75 9.20898 8.0918 8.52539 8.77539C7.8418 9.45898 7.5 10.2793 7.5 11.2363C7.5 12.2207 7.8418 13.0547 8.52539 13.7383C9.20898 14.4219 10.0293 14.7637 10.9863 14.7637Z" fill="#56504C"/>
</svg>

<svg width="36" height="36" fill="none" xmlns="http://www.w3.org/2000/svg"><path d="M35.39 9.514a9.258 9.258 0 010 2.748c-.109.902-.368 1.928-.779 3.076a35.114 35.114 0 01-2.214 4.922 42.587 42.587 0 01-3.2 5.004 52.353 52.353 0 01-4.183 4.963 67.308 67.308 0 01-5.127 4.84 2.904 2.904 0 01-.903.492 2.543 2.543 0 01-.984.205c-.328 0-.656-.069-.984-.205a2.904 2.904 0 01-.903-.493 67.308 67.308 0 01-5.127-4.84 56.123 56.123 0 01-4.142-4.962 42.571 42.571 0 01-3.2-5.004 32.565 32.565 0 01-2.255-4.922c-.383-1.148-.643-2.174-.78-3.076a9.257 9.257 0 010-2.748c.192-1.23.588-2.38 1.19-3.446A10.645 10.645 0 014.055 3.28 10.156 10.156 0 017.09 1.434 9.53 9.53 0 0110.7.736h.081c1.422.028 2.748.315 3.979.862A10.033 10.033 0 0118 3.812c.93-.93 2.01-1.667 3.24-2.214a10.392 10.392 0 013.98-.862h.082a9.53 9.53 0 013.61.698 9.518 9.518 0 013.034 1.845 10.645 10.645 0 012.256 2.79 10.12 10.12 0 011.19 3.445zm-2.42 5.25c.356-1.04.589-1.942.698-2.707.11-.766.11-1.532 0-2.297a8.497 8.497 0 00-.984-2.79 8.842 8.842 0 00-1.887-2.378 6.298 6.298 0 00-1.19-.862 5.89 5.89 0 00-1.312-.656 7.447 7.447 0 00-1.477-.41 6.976 6.976 0 00-1.517-.164h-.041c-.575 0-1.149.068-1.723.205-.547.11-1.08.274-1.6.492-.492.219-.97.479-1.435.78a7.48 7.48 0 00-1.23 1.066L18 6.314l-1.23-1.271a6.747 6.747 0 00-1.272-1.066 8.313 8.313 0 00-3.035-1.271A6.907 6.907 0 0010.78 2.5h-.082c-.492 0-.998.055-1.517.164a6.63 6.63 0 00-1.436.41 6.855 6.855 0 00-1.353.656 8.73 8.73 0 00-1.19.862A8.841 8.841 0 003.316 6.97a7.842 7.842 0 00-.943 2.789 7.165 7.165 0 00-.041 2.297c.11.765.356 1.668.738 2.707a33.67 33.67 0 002.092 4.716 42.398 42.398 0 003.076 4.758c.602.82 1.244 1.64 1.928 2.461a83.411 83.411 0 002.133 2.38 97.541 97.541 0 002.379 2.378c.82.766 1.681 1.518 2.584 2.256.082.082.191.15.328.205.137.055.273.082.41.082.137 0 .273-.027.41-.082.137-.055.26-.123.37-.205a67.829 67.829 0 002.542-2.256c.82-.793 1.6-1.586 2.338-2.379a57.122 57.122 0 002.174-2.379c.684-.82 1.326-1.64 1.928-2.46a38.419 38.419 0 003.035-4.759 34.388 34.388 0 002.174-4.716zM10.987 5.986c.711 0 1.381.137 2.01.41a5.31 5.31 0 011.723 1.149 4.784 4.784 0 011.107 1.723c.274.628.41 1.285.41 1.968a5.27 5.27 0 01-.41 2.051 4.868 4.868 0 01-1.107 1.682 5.286 5.286 0 01-1.723 1.148 5.465 5.465 0 01-2.01.37 5.68 5.68 0 01-2.01-.37 5.412 5.412 0 01-1.681-1.148 5.412 5.412 0 01-1.149-1.682 5.28 5.28 0 01-.41-2.05c0-.684.137-1.34.41-1.97a5.285 5.285 0 011.149-1.722 5.411 5.411 0 011.682-1.149 5.18 5.18 0 012.01-.41zm0 8.778c.985 0 1.819-.342 2.502-1.026.684-.683 1.026-1.517 1.026-2.502 0-.957-.342-1.777-1.026-2.46-.683-.684-1.517-1.026-2.502-1.026-.957 0-1.777.342-2.46 1.025C7.841 9.46 7.5 10.28 7.5 11.236c0 .985.342 1.819 1.025 2.502.684.684 1.504 1.026 2.461 1.026z" fill="#56504C"/></svg>
